X: 1
T: Here Comes Sally!   [D]
O: North Carolina
Z: 2014 John Chambers <jc:trillian.mit.edu>
M: 2/4
L: 1/8
K: D
|: "D"dd dd | fa fd |1 "A7"ee ee | ce cA :|2 "A7"ag fe | "D"d2 d2 :|
P: Down an octave:
|: "D"DD DD | FA FD |1 "A7"EE EE | CE CA, :|2 "A7"AG FE | "D"D2 D2 :|
